src/asterisk.svg

<svg xmlns="http://www.w3.org/2000/svg" width="16" height="16" fill="currentColor" viewBox="0 0 16 16">
  <path fill-rule="evenodd" d="M13.005 9.41a10.249 10.249 0 0 1-2.526-.654 13.998 13.998 0 0 1-1.65-.749 16.305 16.305 0 0 1 1.65-.76 9.753 9.753 0 0 1 2.526-.643 1.49 1.49 0 0 0 1.005-.573 1.435 1.435 0 0 0-2.338-1.66 9.27 9.27 0 0 1-1.824 1.87c-.471.38-.963.73-1.474 1.053.02-.603.075-1.204.164-1.8.129-.87.368-1.719.713-2.527a1.442 1.442 0 0 0 0-1.169 1.425 1.425 0 0 0-1.824-.69 1.402 1.402 0 0 0-.643 1.86 9.62 9.62 0 0 1 .7 2.525c.076.598.115 1.2.119 1.801a15.11 15.11 0 0 1-1.486-1.053 9.595 9.595 0 0 1-1.824-1.87 1.47 1.47 0 0 0-1.017-.573 1.415 1.415 0 0 0-.281 2.806 9.688 9.688 0 0 1 2.527.643c.568.22 1.122.474 1.66.76-.533.285-1.084.535-1.65.75-.81.323-1.66.544-2.525.653a1.356 1.356 0 0 0-.982.573 1.404 1.404 0 1 0 2.268 1.65 10.197 10.197 0 0 1 1.824-1.86c.472-.379.963-.729 1.474-1.052a13.248 13.248 0 0 1-.176 1.8 9.866 9.866 0 0 1-.631 2.514 1.404 1.404 0 1 0 2.573 0 9.547 9.547 0 0 1-.702-2.514 13.31 13.31 0 0 1-.234-1.8c.51.323 1.003.673 1.474 1.052a10.166 10.166 0 0 1 1.824 1.86c.236.321.597.53.994.572a1.405 1.405 0 0 0 .292-2.795Z" clip-rule="evenodd"/>
</svg>

<svg xmlns="http://www.w3.org/2000/svg" width="16" height="16" viewBox="0 0 16 16"><g><path d="M13,9.41a10.46,10.46,0,0,1-2.53-.65A15.4,15.4,0,0,1,8.83,8a15.3,15.3,0,0,1,1.65-.76A9.61,9.61,0,0,1,13,6.6,1.45,1.45,0,0,0,14,6a1.43,1.43,0,0,0-2.34-1.66h0A9,9,0,0,1,9.85,6.24a15.24,15.24,0,0,1-1.48,1,15.65,15.65,0,0,1,.17-1.8A10.5,10.5,0,0,1,9.25,3a1.41,1.41,0,0,0,0-1.17,1.41,1.41,0,0,0-1.82-.69A1.41,1.41,0,0,0,6.78,3a9.55,9.55,0,0,1,.71,2.52,15.53,15.53,0,0,1,.11,1.8,15.24,15.24,0,0,1-1.48-1A9.82,9.82,0,0,1,4.29,4.37a1.45,1.45,0,0,0-1-.57A1.41,1.41,0,0,0,3,6.6a9.64,9.64,0,0,1,2.52.65A14.61,14.61,0,0,1,7.18,8a15.4,15.4,0,0,1-1.65.75A10.5,10.5,0,0,1,3,9.41,1.39,1.39,0,0,0,2,10a1.41,1.41,0,0,0,2.21,1.74l.06-.09A10.39,10.39,0,0,1,6.12,9.77a15.11,15.11,0,0,1,1.47-1,13.54,13.54,0,0,1-.17,1.8A10,10,0,0,1,6.78,13a1.41,1.41,0,0,0,2.58,1.12,1.45,1.45,0,0,0,0-1.12,9.27,9.27,0,0,1-.7-2.52,13.43,13.43,0,0,1-.24-1.8,15.11,15.11,0,0,1,1.47,1,10.39,10.39,0,0,1,1.83,1.86,1.48,1.48,0,0,0,1,.58,1.41,1.41,0,0,0,.3-2.8Z"/></g></svg>
